!!!OTL: The Star-Spangled Banner
!!!COM: Smith, John Stafford
!!!LYR: Key, Francis Scott
!!!ODT: unknown
!!!YOR: National Anthems from Around the World
!!!YOY: 1995
!!!AST: Patriotic song
!!!YEC: Brian Luke, 2001
**kern	**harm
*k[b-e-]	*k[b-e-]
*M3/4	*M3/4
*B-:	*B-:
*>A	*>A
8.f	.
16d	.
=1	=1
4B-	I
4d	.
4f	Vb
=2	=2
2b-	vi
8.dd	V/vib
16cc	.
=3	=3
4b-	vi
4d	.
4e	V7/V
=4	=4
2f	V
8f	.
8f	.
=5	=5
4.dd	I
8cc	V7
4b-	I
=6	=6
2a	V
8g	V7
8a	.
=7	=7
4b-	I
4b-	.
4f	.
=8	=8
4d	.
4B-	.
*>A'	*>A'
8.f	.
16d	.
=9	=9
4B-	I
4d	.
4f	Vb
=10	=10
2b-	vi
8.dd	V/vib
16cc	.
=11	=11
4b-	vi
4d	.
4e	V7/V
=12	=12
2f	V
8f	.
8f	.
=13	=13
4.dd	I
8cc	V7
4b-	I
=14	=14
2a	V
8g	V7
8a	.
=15	=15
4b-	I
4b-	.
4f	.
=16	=16
4d	.
4B-	.
*>B	*>B
8dd	.
8dd	.
=17	=17
4dd	I
4ee-	.
4ff	.
=18	=18
2ff	.
8ee-	.
8dd	.
=19	=19
4cc	V
4dd	I
4ee-	V7
=20	=20
2ee-	.
4ee-	.
=21	=21
4.dd	I
8cc	V7
4b-	I
=22	=22
2a	V
8g	V7
8a	.
=23	=23
4b-	I
4d	vi
4e	V7/V
=24	=24
2f	V
*>C	*>C
4f	V7
=25	=25
4b-	I
4b-	.
8b-	.
8a	.
=26	=26
4g	IV
4g	.
4g	V7/ii
=27	=27
4cc	ii
8ee-	.
8dd	.
8cc	.
8b-	viio/V
=28	=28
4b-	Ic
4a;	V
8f	.
8f	V7
=29	=29
4.b-	Ib
8cc	Vc
8dd	I
8ee-	V7c
=30	=30
2ff	Ib
8b-	vi
8cc	.
=31	=31
4.dd	Ic
8ee-	V7
4cc	.
=32	=32
2b-	I;
*-	*-
